icons/1_Primary/bunny.net.svg

<svg width="1024" height="1024" fill="none" xmlns="http://www.w3.org/2000/svg"><g clip-path="url(#a)"><path d="M512 1024c282.77 0 512-229.23 512-512S794.77 0 512 0 0 229.23 0 512s229.23 512 512 512Z" fill="#F8C18C"/><path d="M537.27 326 664 394.77 546.9 238a87.316 87.316 0 0 0-9.63 88ZM480 581.21a28.89 28.89 0 1 1-.25 0h.25ZM391.79 261l354.89 192.6a17.197 17.197 0 0 1 7.062 24.595 17.197 17.197 0 0 1-7.062 6.345 275.917 275.917 0 0 1-86.93 33.9l-73.82 151.49s-23.37 53.16-87.7 32.74c27-27 59.58-51.36 59.58-92.83a77.94 77.94 0 0 0-155.87 0c0 54.18 53.41 77 83.07 114.66a48.788 48.788 0 0 1-4.24 61.5c-36.85-36.46-108.11-98-137.39-138.28a116.845 116.845 0 0 1-25-71.26A134.182 134.182 0 0 1 413.11 455a154.748 154.748 0 0 1 49.82-6 161.51 161.51 0 0 1 66.77 20.16c31.46 18.49 46.74 13.61 68.44-4.62C611 454 625 419.68 603.26 411.72a155.865 155.865 0 0 0-21.7-5.39c-40.32-7.83-110.81-15.28-136.74-30-41.21-22.73-68.95-69.59-53-115.3l-.03-.03Zm-95.14 167.54a29.152 29.152 0 0 1 29 29.15v29h-29a29.08 29.08 0 0 1 0-58.16v.01Z" fill="#fff"/></g><defs><clipPath id="a"><path fill="#fff" d="M0 0h1024v1024H0z"/></clipPath></defs></svg>

<svg width="1024" height="1024" viewBox="0 0 1024 1024" fill="none" xmlns="http://www.w3.org/2000/svg">
<g clip-path="url(#clip0_2_1752)">
<path d="M512 1024C794.77 1024 1024 794.77 1024 512C1024 229.23 794.77 0 512 0C229.23 0 0 229.23 0 512C0 794.77 229.23 1024 512 1024Z" fill="#F8C18C"/>
<path d="M537.27 326L664 394.77L546.9 238C537.597 250.478 531.799 265.217 530.105 280.689C528.412 296.161 530.886 311.805 537.27 326ZM480 581.21C487.652 581.243 494.977 584.31 500.37 589.738C505.762 595.166 508.782 602.511 508.765 610.162C508.749 617.813 505.698 625.146 500.282 630.55C494.865 635.955 487.527 638.99 479.875 638.99C472.224 638.99 464.885 635.955 459.469 630.55C454.053 625.146 451.002 617.813 450.985 610.162C450.969 602.511 453.988 595.166 459.381 589.738C464.773 584.31 472.099 581.243 479.75 581.21H480ZM391.79 261L746.68 453.6C749.583 455.011 752.03 457.209 753.742 459.945C755.454 462.681 756.362 465.843 756.362 469.07C756.362 472.297 755.454 475.459 753.742 478.195C752.03 480.931 749.583 483.129 746.68 484.54C719.838 500.693 690.441 512.157 659.75 518.44L585.93 669.93C585.93 669.93 562.56 723.09 498.23 702.67C525.23 675.67 557.81 651.31 557.81 609.84C557.578 589.323 549.265 569.726 534.674 555.3C520.084 540.874 500.393 532.783 479.875 532.783C459.357 532.783 439.667 540.874 425.076 555.3C410.486 569.726 402.173 589.323 401.94 609.84C401.94 664.02 455.35 686.84 485.01 724.5C491.49 733.673 494.606 744.8 493.834 756.004C493.061 767.208 488.447 777.803 480.77 786C443.92 749.54 372.66 688 343.38 647.72C327.389 627.389 318.596 602.326 318.38 576.46C319.786 548.937 329.632 522.514 346.581 500.783C363.529 479.052 386.758 463.067 413.11 455C429.28 450.303 446.108 448.276 462.93 449C486.39 450.777 509.177 457.657 529.7 469.16C561.16 487.65 576.44 482.77 598.14 464.54C611 454 625 419.68 603.26 411.72C596.165 409.406 588.913 407.605 581.56 406.33C541.24 398.5 470.75 391.05 444.82 376.33C403.61 353.6 375.87 306.74 391.82 261.03L391.79 261ZM296.65 428.54C304.355 428.58 311.731 431.668 317.166 437.131C322.6 442.593 325.65 449.985 325.65 457.69V486.69H296.65C288.938 486.69 281.541 483.626 276.088 478.173C270.634 472.719 267.57 465.322 267.57 457.61C267.57 449.897 270.634 442.501 276.088 437.047C281.541 431.594 288.938 428.53 296.65 428.53V428.54Z" fill="white"/>
</g>
<defs>
<clipPath id="clip0_2_1752">
<rect width="1024" height="1024" fill="white"/>
</clipPath>
</defs>
</svg>
